libs/ui/packages/crypto-icons/src/svg/BTS.svg

<svg width="24" height="24" viewBox="0 0 24 24" fill="none">
<path d="M6.7718 3.55612L11.4773 7.72987C11.532 7.78012 11.5913 7.82212 11.637 7.87612C11.6423 7.90809 11.6445 7.94048 11.6438 7.97287C11.6415 9.77062 11.6483 11.5669 11.6415 13.3624C11.4062 13.4108 11.1806 13.4983 10.974 13.6211L6.8168 9.46462C6.80077 9.45159 6.78831 9.43472 6.78057 9.41557C6.77283 9.39642 6.77007 9.37563 6.77255 9.35512C6.77705 7.42162 6.77255 5.48962 6.77705 3.55762L6.7718 3.55612ZM12.357 10.0114C13.4966 10.0876 14.5798 10.5349 15.441 11.2849C15.1958 11.5474 14.931 11.7949 14.6775 12.0521C14.142 12.5861 13.6103 13.1246 13.0725 13.6534C12.8553 13.5117 12.6129 13.4129 12.3585 13.3624C12.3525 12.2471 12.3585 11.1296 12.3585 10.0114H12.357ZM6.77405 10.5124C7.99505 11.7221 9.20855 12.9401 10.4273 14.1521C10.2848 14.3734 10.1828 14.6171 10.1258 14.8744H6.7718V10.5101L6.77405 10.5124ZM15.4785 12.2621C15.6383 12.1091 15.7845 11.9449 15.9533 11.7971C16.7033 12.655 17.1512 13.7352 17.2283 14.8721C16.128 14.8766 15.0255 14.8721 13.9253 14.8744C13.8593 14.8894 13.8593 14.8129 13.8465 14.7716C13.7938 14.5544 13.7026 14.3484 13.5773 14.1634C14.2073 13.5289 14.844 12.8966 15.4785 12.2644V12.2621ZM6.7718 15.5876H9.63755C9.8018 15.5876 9.96605 15.5801 10.1325 15.5914C10.1835 15.8449 10.2825 16.0864 10.4228 16.3024L8.0978 18.6214C8.08055 18.6349 8.05205 18.6761 8.0318 18.6439C7.28981 17.7897 6.84734 16.7165 6.7718 15.5876ZM13.8683 15.5914C14.3408 15.5809 14.8088 15.5914 15.2813 15.5876H17.2283C17.1547 16.707 16.7184 17.772 15.9855 18.6214L14.6295 17.2699C14.2905 16.9286 13.9448 16.5934 13.6095 16.2476C13.7348 16.0466 13.8225 15.8239 13.8683 15.5914ZM12.9278 16.8889C12.9803 16.8589 13.0328 16.8274 13.0853 16.8011L15.4523 19.1636C14.5899 19.92 13.5017 20.3701 12.357 20.4439V17.0966C12.5563 17.0566 12.7481 16.9857 12.9255 16.8866L12.9278 16.8889ZM9.48455 18.2344C9.96605 17.7574 10.4423 17.2744 10.9283 16.8019C11.1458 16.9414 11.388 17.0419 11.6408 17.0966V20.4439C10.5009 20.3695 9.41708 19.922 8.5568 19.1704C8.85905 18.8531 9.1763 18.5494 9.48455 18.2366V18.2344Z" fill="#35BAEB"/>
</svg>

<svg width="24" height="24" viewBox="0 0 24 24" fill="none"><path fill="#35baeb" d="m6.772 3.556 4.705 4.174c.055.05.114.092.16.146a.5.5 0 0 1 .007.097c-.002 1.798.004 3.594-.002 5.39q-.356.073-.668.258L6.817 9.465a.12.12 0 0 1-.044-.11c.004-1.933 0-3.865.004-5.797zm5.585 6.455a5.23 5.23 0 0 1 3.084 1.274c-.245.262-.51.51-.764.767-.535.534-1.067 1.073-1.604 1.601a2 2 0 0 0-.715-.29c-.006-1.116 0-2.233 0-3.352zm-5.583.501c1.221 1.21 2.435 2.428 3.653 3.64a2.2 2.2 0 0 0-.301.722H6.772V10.51zm8.705 1.75c.16-.153.306-.317.474-.465a5.2 5.2 0 0 1 1.275 3.075c-1.1.005-2.203 0-3.303.002-.066.015-.066-.061-.079-.102a1.9 1.9 0 0 0-.269-.609c.63-.634 1.267-1.266 1.902-1.899zm-8.707 3.326h2.866c.164 0 .328-.008.495.003.05.254.15.495.29.711l-2.325 2.32c-.017.013-.046.054-.066.022a5.2 5.2 0 0 1-1.26-3.056m7.096.003c.473-.01.94 0 1.413-.003h1.947a5.16 5.16 0 0 1-1.243 3.033L14.63 17.27c-.34-.341-.685-.677-1.02-1.022.125-.201.213-.424.258-.657m-.94 1.298q.079-.047.157-.088l2.367 2.363a5.2 5.2 0 0 1-3.095 1.28v-3.347q.301-.06.569-.21zm-3.443 1.345c.481-.477.957-.96 1.443-1.432.218.14.46.24.713.295v3.347a5.2 5.2 0 0 1-3.084-1.274c.302-.317.62-.62.928-.933z"/></svg>
